X:161
T:John Brady's
S:John Williams, Steam
Z:robin.beech@mcgill.ca
M:4/4
L:1/8
R:reel
K:G
e3g edBA | G3A BABd | eaaa bagb | agea gedB |
e3g edBA | G3A BABd | eaaa gedg | edBA G4 ::
dGGG FDcA | dggg fdaf | dggg bgag | gfge fdcA|
dGGG FDcA | dggg fdad | eaaa gedg  | edBA G4 :|
